data/styles/clear/style-clear/symbols/railway-crossing-l.svg

<svg height="12" viewBox="0 0 20 12" width="20"><g fill="none" fill-rule="evenodd"><path d="m18.7249329 10.0325318.6065764 1.4627686-1.5452438.1955675-1.9367178.2451128-.391474.0495453-.3416261-.2011827-12.58583633-7.41176467-.34162618-.20118273-.15367079-.37057956-.76024719-1.83334814-.60657639-1.46276858 1.54524383-.19556752 1.93671778-.24511283.39147394-.04954531.34162618.20118273 12.58583625 7.41176469.3416262.20118273.1536708.37057956zm-17.44986579 0 .76024717-1.83334813.1536708-.37057956.34162618-.20118273 12.58583634-7.41176469.3416261-.20118273.391474.04954531 1.9367177.24511283 1.5452439.19556752-.6065764 1.46276858-.7602472 1.83334814-.1536708.37057956-.3416262.20118273-12.58583626 7.41176467-.34162619.2011827-.39147394-.0495453-1.93671776-.2451128-1.54524382-.1955675z" fill="#c81e17" fill-rule="nonzero"/><path d="m15.7446084 10.4136821 1.5425486-.2063747-.5925486-1.4390736-4.794665-2.76820113 4.7942273-2.7679484.5925486-1.43907363-1.5425486-.20637464-5.74422728 3.31643116-5.74367638-3.31611311-1.54254863.20637465.59254863 1.43907362 4.79367638 2.76763035-4.79411412 2.76788307-.59254862 1.43907366 1.54254862.2063746 5.74411412-3.31636582z" fill="#fff" stroke="#c81e17" stroke-width=".5"/></g></svg>

<svg xmlns:xlink="http://www.w3.org/1999/xlink" width="20" height="12" viewBox="0 0 20 12">
  <defs>
    <path id="railway-crossing-l-a" d="M9.99994342,7.38567331 L15.6933559,10.6727665 L17.6418383,10.4120828 L16.8933559,8.59430556 L12.3999434,6.00003267 L16.8929181,3.4060125 L17.6414006,1.58823529 L15.6929181,1.32755153 L9.99994342,4.61439202 L4.30751959,1.32786959 L2.3590371,1.58855335 L3.10751959,3.40633056 L7.59994342,6.00003267 L3.10708185,8.5939875 L2.35859938,10.4117647 L4.30708185,10.6724485 L9.99994342,7.38567331 Z"/>
  </defs>
  <g fill="none" fill-rule="evenodd">
    <path fill="#C81E17" fill-rule="nonzero" d="M18.7249329,10.0325318 L18.7249329,10.0325318 L19.3315093,11.4953004 L17.7862655,11.6908679 L15.8495477,11.9359807 L15.4580737,11.985526 L15.1164476,11.7843433 L2.53061127,4.37257863 L2.18898509,4.1713959 L2.0353143,3.80081634 L1.27506711,1.9674682 L0.668490716,0.504699615 L2.21373455,0.3091321 L4.15045233,0.0640192741 L4.54192627,0.0144739638 L4.88355245,0.21565669 L17.4693887,7.62742138 L17.8110149,7.82860411 L17.9646857,8.19918367 L18.7249329,10.0325318 Z M1.27506711,10.0325318 L1.27506711,10.0325318 L2.03531428,8.19918367 L2.18898508,7.82860411 L2.53061126,7.62742138 L15.1164476,0.21565669 L15.4580737,0.0144739638 L15.8495477,0.0640192741 L17.7862654,0.3091321 L19.3315093,0.504699615 L18.7249329,1.9674682 L17.9646857,3.80081634 L17.8110149,4.1713959 L17.4693887,4.37257863 L4.88355244,11.7843433 L4.54192625,11.985526 L4.15045231,11.9359807 L2.21373455,11.6908679 L0.668490727,11.4953004 L1.27506711,10.0325318 Z"/>
    <use fill="#FFF" xlink:href="#railway-crossing-l-a"/>
    <path stroke="#C81E17" stroke-width=".5" d="M4.2558293,10.413364 L2.71328068,10.2069894 L3.3058293,8.76791574 L7.72494342,6.21653902 L8.09994342,6.00003267 L7.72494342,5.78352632 L3.30626704,3.23240232 L2.71371841,1.7933287 L4.25626704,1.58695405 L9.87494342,4.83089837 L9.99994342,4.90306716 L10.1249434,4.83089837 L15.7441707,1.586636 L17.2867193,1.79301064 L16.6941707,3.23208427 L12.2749434,5.78352632 L11.8999434,6.00003267 L12.2749434,6.21653902 L16.6946084,8.7682338 L17.287157,10.2073074 L15.7446084,10.4136821 L10.1249434,7.16916696 L9.99994342,7.09699818 L9.87494342,7.16916696 L4.2558293,10.413364 Z"/>
  </g>
</svg>
